icons/tokens/0x9f8F72aA9304c8B593d555F12eF6589cC3A579A2/logo.svg

<svg xmlns="http://www.w3.org/2000/svg" width="32" height="32" viewBox="0 0 32 32">
  <g fill="none">
    <circle cx="16" cy="16" r="16" fill="#1AAB9B"/>
    <path fill="#FFF" d="M8.12474667,20.8 L8.12474667,13.2696 L13.83552,17.5672 L13.83552,20.8 L15.2935467,20.8 L15.2935467,17.2640533 C15.2935467,16.9968533 15.168,16.74512 14.9544533,16.58448 L8.02864,11.37248 C7.46810667,10.9506667 6.66666667,11.35056 6.66666667,12.0521067 L6.66666667,20.8 L8.12474667,20.8 Z M23.9189333,20.8 L23.9189333,13.2696 L18.20816,17.5672 L18.20816,20.8 L16.7501333,20.8 L16.7501333,17.2640533 C16.7501333,16.9968533 16.87568,16.74512 17.0892267,16.58448 L24.01504,11.37248 C24.5755733,10.9506667 25.3770133,11.35056 25.3770133,12.0521067 L25.3770133,20.8 L23.9189333,20.8 Z"/>
  </g>
</svg>

<svg viewBox="0 0 32 32"><g fill="none"><circle cx="16" cy="16" r="16" fill="#1AAB9B"/><path fill="#FFF" d="M8.125 20.8v-7.53l5.71 4.297V20.8h1.459v-3.536a.85.85 0 00-.34-.68L8.03 11.372a.85.85 0 00-1.362.68V20.8h1.458zm15.794 0v-7.53l-5.71 4.297V20.8H16.75v-3.536a.85.85 0 01.34-.68l6.925-5.212a.85.85 0 011.362.68V20.8h-1.458z"/></g></svg>
